X:12
T:The Lowlands Low (b)
M:C|
L:1/8
Q:1/4=3D100
K:G
D2|\
G>G G>G G2 B,>C|D>E D>B, G,3B,|
C>B, C>D G>G G>A|B>B A>G  A2 GA|
B>A G>F G>E E>D|E>D G>G A,2 G,B,|
C>B, C>D E2 F2|G4 G,2 GA|
B>G c>B A2F2|G6||
